material/.icons/material/apple-keyboard-shift.svg

<svg xmlns="http://www.w3.org/2000/svg" viewBox="0 0 24 24"><path d="M15 18v-6h2.17L12 6.83 6.83 12H9v6h6M12 4l10 10h-5v6H7v-6H2L12 4z"/></svg>

<?xml version="1.0" encoding="UTF-8"?><!DOCTYPE svg PUBLIC "-//W3C//DTD SVG 1.1//EN" "http://www.w3.org/Graphics/SVG/1.1/DTD/svg11.dtd"><svg xmlns="http://www.w3.org/2000/svg" xmlns:xlink="http://www.w3.org/1999/xlink" version="1.1" id="mdi-apple-keyboard-shift" width="24" height="24" viewBox="0 0 24 24"><path d="M15,18V12H17.17L12,6.83L6.83,12H9V18H15M12,4L22,14H17V20H7V14H2L12,4Z" /></svg>
